www/img/icon-bitcoin.svg

<?xml version="1.0" encoding="utf-8"?>
<svg version="1.1" id="Layer_1" xmlns="http://www.w3.org/2000/svg" xmlns:xlink="http://www.w3.org/1999/xlink" x="0px" y="0px"
	 viewBox="0 0 51 51" style="enable-background:new 0 0 51 51;" xml:space="preserve">
<style type="text/css">
	.st0{fill:url(#coin_1_);}
	.st1{filter:url(#Adobe_OpacityMaskFilter);}
	.st2{fill:#FFFFFF;}
	.st3{mask:url(#mask-3);fill:#FFFFFF;}
</style>
<linearGradient id="coin_1_" gradientUnits="userSpaceOnUse" x1="-273.8224" y1="413.966" x2="-274.172" y2="414.57" gradientTransform="matrix(50.3194 0 0 -50.3886 13809.4346 20893.9863)">
	<stop  offset="0" style="stop-color:#FFA24B"/>
	<stop  offset="1" style="stop-color:#F7891C"/>
</linearGradient>
<path id="coin" class="st0" d="M25.5,51c14.1,0,25.5-11.4,25.5-25.5S39.5,0,25.5,0S0,11.4,0,25.5S11.4,51,25.5,51z"/>
<defs>
	<filter id="Adobe_OpacityMaskFilter" filterUnits="userSpaceOnUse" x="15" y="11" width="21" height="28.7">
		<feColorMatrix  type="matrix" values="1 0 0 0 0  0 1 0 0 0  0 0 1 0 0  0 0 0 1 0"/>
	</filter>
</defs>
<mask maskUnits="userSpaceOnUse" x="15" y="11" width="21" height="28.7" id="mask-3">
	<g class="st1">
		<path id="path-2" class="st2" d="M26.2,50.4c13.9,0,25.2-11.3,25.2-25.2S40.1,0,26.2,0S1,11.3,1,25.2S12.3,50.4,26.2,50.4z"/>
	</g>
</mask>
<path id="BitPay-Bitcoin_Symbol" class="st3" d="M33.5,19.1c-0.6-3-3.3-3.8-6.5-3.9L26.5,11l-2.5,0.2l0.5,4.2c-0.7,0.1-1.3,0.1-2,0.2
	l-0.5-4.2l-2.5,0.2l0.5,4.3c-0.5,0-1.1,0.1-1.6,0.2l0,0L15,16.4l0.3,2.8c0,0,1.8-0.2,1.8-0.1c1-0.1,1.4,0.5,1.5,1l0.5,4.9
	c0.1,0,0.2,0,0.3,0c-0.1,0-0.2,0-0.3,0l0.8,6.8c0,0.3-0.2,0.9-0.8,0.9c0,0-1.8,0.2-1.8,0.2l-0.1,3.1l3.2-0.3c0.6,0,1.2-0.1,1.8-0.1
	l0.5,4.3l2.5-0.2l-0.5-4.3c0.7,0,1.4-0.1,2-0.1l0.5,4.2l2.5-0.2l-0.5-4.3c4.2-0.6,7-2,6.9-6.1c-0.1-3.3-1.7-4.7-4.2-5.1
	C33.2,22.8,34,21.4,33.5,19.1L33.5,19.1z M31,28.7c0.4,3.2-5,3.3-6.7,3.5l-0.6-5.7C25.5,26.3,30.7,25.3,31,28.7L31,28.7z M23.5,23.8
	l-0.5-5.2c1.4-0.1,5.8-1,6.1,2.1C29.3,23.6,24.9,23.7,23.5,23.8z"/>
</svg>

<?xml version="1.0" encoding="UTF-8" standalone="no"?>
<!DOCTYPE svg PUBLIC "-//W3C//DTD SVG 1.1//EN" "http://www.w3.org/Graphics/SVG/1.1/DTD/svg11.dtd">
<svg width="100%" height="100%" viewBox="0 0 51 51" version="1.1" xmlns="http://www.w3.org/2000/svg" xmlns:xlink="http://www.w3.org/1999/xlink" xml:space="preserve" style="fill-rule:evenodd;clip-rule:evenodd;stroke-linejoin:round;stroke-miterlimit:1.41421;">
    <path id="coin" d="M25.5,51C39.6,51 51,39.6 51,25.5C51,11.4 39.5,0 25.5,0C11.5,0 0,11.4 0,25.5C0,39.6 11.4,51 25.5,51Z" style="fill:url(#_Linear1);fill-rule:nonzero;"/>
    <g id="BitPay.-Bitcoin_Symbol" transform="matrix(0.939973,0.341249,-0.341249,0.939973,10.2185,-7.19166)">
        <path d="M33.5,19.1C32.9,16.1 30.2,15.3 27,15.2L26.5,11L24,11.2L24.5,15.4C23.8,15.5 23.2,15.5 22.5,15.6L22,11.4L19.5,11.6L20,15.9C19.5,15.9 18.9,16 18.4,16.1L15,16.4L15.3,19.2C15.3,19.2 17.1,19 17.1,19.1C18.1,19 18.5,19.6 18.6,20.1L19.1,25C19.2,25 19.3,25 19.4,25C19.3,25 19.2,25 19.1,25L19.9,31.8C19.9,32.1 19.7,32.7 19.1,32.7L17.3,32.9L17.2,36L20.4,35.7C21,35.7 21.6,35.6 22.2,35.6L22.7,39.9L25.2,39.7L24.7,35.4C25.4,35.4 26.1,35.3 26.7,35.3L27.2,39.5L29.7,39.3L29.2,35C33.4,34.4 36.2,33 36.1,28.9C36,25.6 34.4,24.2 31.9,23.8C33.2,22.8 34,21.4 33.5,19.1ZM31,28.7C31.4,31.9 26,32 24.3,32.2L23.7,26.5C25.5,26.3 30.7,25.3 31,28.7ZM23.5,23.8L23,18.6C24.4,18.5 28.8,17.6 29.1,20.7C29.3,23.6 24.9,23.7 23.5,23.8Z" style="fill:white;fill-rule:nonzero;"/>
    </g>
    <defs>
        <linearGradient id="_Linear1" x1="0" y1="0" x2="1" y2="0" gradientUnits="userSpaceOnUse" gradientTransform="matrix(-17.5917,-30.4347,30.4347,-17.5917,30.8557,34.8191)"><stop offset="0" style="stop-color:rgb(255,162,75);stop-opacity:1"/><stop offset="1" style="stop-color:rgb(247,137,28);stop-opacity:1"/></linearGradient>
    </defs>
</svg>
